ids-wordpress/site-IdS/assets/images/logo-fundo-banco.svg

<svg xmlns="http://www.w3.org/2000/svg" width="1066" height="443" fill="none"><path fill="#fff" d="M0 .167h438.001v438.001H0V.167Z"/><path fill="#F75705" d="M34.067 321.97V114.53h28.427v207.44H34.067Zm61.988 0V114.53h45.073c15.366 0 27.488 2.39 36.366 7.171 9.049 4.609 15.452 11.609 19.208 21 3.927 9.39 5.89 21.085 5.89 35.085v76.318c0 14.683-1.963 27.061-5.89 37.134-3.756 10.073-9.988 17.756-18.695 23.049-8.537 5.122-20.062 7.683-34.574 7.683H96.055Zm28.939-20.744h16.39c10.586 0 18.098-2.049 22.537-6.146 4.439-4.098 7.086-10.074 7.939-17.927 1.025-7.854 1.537-17.33 1.537-28.427v-67.354c0-10.757-.683-19.464-2.049-26.122-1.366-6.659-4.354-11.525-8.963-14.598-4.61-3.073-11.866-4.61-21.769-4.61h-15.622v165.184Zm155.028 23.049c-11.951 0-21.939-2.561-29.964-7.683-7.853-5.122-13.829-12.207-17.927-21.256-4.097-9.049-6.487-19.549-7.17-31.5l25.61-6.915c.512 7.341 1.622 14.427 3.329 21.256 1.878 6.829 4.866 12.464 8.963 16.903 4.098 4.268 9.817 6.402 17.159 6.402 7.512 0 13.146-2.049 16.902-6.146 3.927-4.269 5.891-10.33 5.891-18.183 0-9.391-2.134-16.903-6.403-22.537-4.268-5.805-9.646-11.61-16.134-17.415l-34.829-30.732c-6.83-5.975-11.866-12.463-15.11-19.463-3.244-7.171-4.866-15.964-4.866-26.378 0-15.196 4.354-26.976 13.061-35.342s20.573-12.549 35.598-12.549c8.195 0 15.366 1.11 21.512 3.329 6.317 2.049 11.524 5.293 15.622 9.732 4.268 4.439 7.598 10.073 9.988 16.903 2.561 6.658 4.268 14.512 5.122 23.561l-24.586 6.658c-.512-6.829-1.536-13.061-3.073-18.695-1.536-5.805-4.268-10.415-8.195-13.829-3.756-3.586-9.22-5.378-16.39-5.378-7.171 0-12.805 1.963-16.903 5.89-3.927 3.756-5.89 9.39-5.89 16.903 0 6.317 1.024 11.524 3.073 15.622 2.22 4.097 5.72 8.28 10.5 12.548l35.086 30.732c7.853 6.83 14.768 15.025 20.744 24.586 5.975 9.39 8.963 20.573 8.963 33.549 0 10.244-2.134 19.122-6.402 26.634-4.269 7.342-10.159 12.976-17.671 16.903-7.342 3.926-15.878 5.89-25.61 5.89Zm68.546-2.305v-30.476h27.403v30.476h-27.403Z"/><path fill="#3A3A3A" d="M399.672 321.97V114.53h45.074c15.366 0 27.488 2.39 36.366 7.171 9.048 4.609 15.451 11.609 19.207 21 3.927 9.39 5.89 21.085 5.89 35.085v76.318c0 14.683-1.963 27.061-5.89 37.134-3.756 10.073-9.988 17.756-18.695 23.049-8.537 5.122-20.061 7.683-34.574 7.683h-47.378Zm28.939-20.744h16.391c10.585 0 18.097-2.049 22.536-6.146 4.439-4.098 7.086-10.074 7.939-17.927 1.025-7.854 1.537-17.33 1.537-28.427v-67.354c0-10.757-.683-19.464-2.049-26.122-1.366-6.659-4.353-11.525-8.963-14.598-4.61-3.073-11.866-4.61-21.769-4.61h-15.622v165.184Zm106.113 20.744V114.53h80.415v21.512h-51.475v68.635h41.744v20.488h-41.744v76.061h51.988v20.744h-80.928Zm153.206 2.305c-11.952 0-21.94-2.561-29.964-7.683-7.854-5.122-13.829-12.207-17.927-21.256-4.098-9.049-6.488-19.549-7.171-31.5l25.61-6.915c.512 7.341 1.622 14.427 3.329 21.256 1.879 6.829 4.866 12.464 8.964 16.903 4.098 4.268 9.817 6.402 17.159 6.402 7.512 0 13.146-2.049 16.902-6.146 3.927-4.269 5.89-10.33 5.89-18.183 0-9.391-2.134-16.903-6.402-22.537-4.268-5.805-9.646-11.61-16.134-17.415l-34.83-30.732c-6.829-5.975-11.866-12.463-15.11-19.463-3.244-7.171-4.866-15.964-4.866-26.378 0-15.196 4.354-26.976 13.062-35.342 8.707-8.366 20.573-12.549 35.597-12.549 8.195 0 15.366 1.11 21.513 3.329 6.317 2.049 11.524 5.293 15.622 9.732 4.268 4.439 7.597 10.073 9.987 16.903 2.561 6.658 4.269 14.512 5.122 23.561l-24.585 6.658c-.512-6.829-1.537-13.061-3.073-18.695-1.537-5.805-4.269-10.415-8.195-13.829-3.756-3.586-9.22-5.378-16.391-5.378-7.17 0-12.805 1.963-16.902 5.89-3.927 3.756-5.891 9.39-5.891 16.903 0 6.317 1.025 11.524 3.074 15.622 2.219 4.097 5.719 8.28 10.5 12.548l35.085 30.732c7.854 6.83 14.769 15.025 20.744 24.586 5.976 9.39 8.964 20.573 8.964 33.549 0 10.244-2.134 19.122-6.403 26.634-4.268 7.342-10.158 12.976-17.671 16.903-7.341 3.926-15.878 5.89-25.609 5.89Zm73.668-2.305V114.53h28.427v207.44h-28.427Zm111.415 2.561c-12.976 0-23.39-2.732-31.244-8.195-7.683-5.634-13.317-13.744-16.903-24.33-3.414-10.585-5.122-23.305-5.122-38.158v-69.403c0-15.195 1.537-28.086 4.61-38.671 3.244-10.756 8.878-18.951 16.903-24.586 8.195-5.634 19.549-8.451 34.061-8.451 12.976 0 23.39 2.22 31.244 6.659 8.024 4.268 13.829 10.927 17.415 19.975 3.585 8.879 5.378 20.147 5.378 33.805v7.683h-27.147v-6.402c0-9.049-.597-16.39-1.792-22.025-1.195-5.804-3.671-10.073-7.427-12.804-3.586-2.903-9.305-4.354-17.159-4.354-8.536 0-14.768 1.963-18.695 5.89-3.756 3.927-6.146 9.305-7.171 16.134-.854 6.659-1.28 14.257-1.28 22.793v76.83c0 9.902.683 18.183 2.048 24.841 1.537 6.659 4.354 11.61 8.452 14.854 4.097 3.244 9.902 4.866 17.414 4.866 7.513 0 13.318-1.793 17.415-5.378 4.098-3.585 6.915-8.878 8.451-15.878 1.537-7 2.305-15.708 2.305-26.122v-14.342h-26.378v-20.488h52.5V321.97h-18.183l-2.817-23.817c-2.731 7.683-7 14-12.805 18.951-5.805 4.951-13.829 7.427-24.073 7.427Zm87.626-2.561V114.53h19.719l58.902 137.781V114.53h24.07v207.44h-18.43l-59.676-141.623V321.97h-24.585Z"/></svg>

<svg width="1066" height="443" viewBox="0 0 1066 443" fill="none" xmlns="http://www.w3.org/2000/svg">
<path d="M0 0.166992H438.001V438.168H0V0.166992Z" fill="white"/>
<path d="M34.0669 321.97V114.53H62.4939V321.97H34.0669ZM96.0549 321.97V114.53H141.128C156.494 114.53 168.616 116.92 177.494 121.701C186.543 126.31 192.946 133.31 196.702 142.701C200.629 152.091 202.592 163.786 202.592 177.786V254.104C202.592 268.787 200.629 281.165 196.702 291.238C192.946 301.311 186.714 308.994 178.007 314.287C169.47 319.409 157.945 321.97 143.433 321.97H96.0549ZM124.994 301.226H141.384C151.97 301.226 159.482 299.177 163.921 295.08C168.36 290.982 171.007 285.006 171.86 277.153C172.885 269.299 173.397 259.823 173.397 248.726V181.372C173.397 170.615 172.714 161.908 171.348 155.25C169.982 148.591 166.994 143.725 162.385 140.652C157.775 137.579 150.519 136.042 140.616 136.042H124.994V301.226ZM280.022 324.275C268.071 324.275 258.083 321.714 250.058 316.592C242.205 311.47 236.229 304.385 232.131 295.336C228.034 286.287 225.644 275.787 224.961 263.836L250.571 256.921C251.083 264.262 252.193 271.348 253.9 278.177C255.778 285.006 258.766 290.641 262.863 295.08C266.961 299.348 272.68 301.482 280.022 301.482C287.534 301.482 293.168 299.433 296.924 295.336C300.851 291.067 302.815 285.006 302.815 277.153C302.815 267.762 300.681 260.25 296.412 254.616C292.144 248.811 286.766 243.006 280.278 237.201L245.449 206.469C238.619 200.494 233.583 194.006 230.339 187.006C227.095 179.835 225.473 171.042 225.473 160.628C225.473 145.432 229.827 133.652 238.534 125.286C247.241 116.92 259.107 112.737 274.132 112.737C282.327 112.737 289.498 113.847 295.644 116.066C301.961 118.115 307.168 121.359 311.266 125.798C315.534 130.237 318.864 135.871 321.254 142.701C323.815 149.359 325.522 157.213 326.376 166.262L301.79 172.92C301.278 166.091 300.254 159.859 298.717 154.225C297.181 148.42 294.449 143.81 290.522 140.396C286.766 136.81 281.302 135.018 274.132 135.018C266.961 135.018 261.327 136.981 257.229 140.908C253.302 144.664 251.339 150.298 251.339 157.811C251.339 164.128 252.363 169.335 254.412 173.433C256.632 177.53 260.132 181.713 264.912 185.981L299.998 216.713C307.851 223.543 314.766 231.738 320.742 241.299C326.717 250.689 329.705 261.872 329.705 274.848C329.705 285.092 327.571 293.97 323.303 301.482C319.034 308.824 313.144 314.458 305.632 318.385C298.29 322.311 289.754 324.275 280.022 324.275ZM348.568 321.97V291.494H375.971V321.97H348.568Z" fill="#F75705"/>
<path d="M399.672 321.97V114.53H444.746C460.112 114.53 472.234 116.92 481.112 121.701C490.16 126.31 496.563 133.31 500.319 142.701C504.246 152.091 506.209 163.786 506.209 177.786V254.104C506.209 268.787 504.246 281.165 500.319 291.238C496.563 301.311 490.331 308.994 481.624 314.287C473.087 319.409 461.563 321.97 447.05 321.97H399.672ZM428.611 301.226H445.002C455.587 301.226 463.099 299.177 467.538 295.08C471.977 290.982 474.624 285.006 475.477 277.153C476.502 269.299 477.014 259.823 477.014 248.726V181.372C477.014 170.615 476.331 161.908 474.965 155.25C473.599 148.591 470.612 143.725 466.002 140.652C461.392 137.579 454.136 136.042 444.233 136.042H428.611V301.226ZM534.724 321.97V114.53H615.139V136.042H563.664V204.677H605.408V225.165H563.664V301.226H615.652V321.97H534.724ZM687.93 324.275C675.978 324.275 665.99 321.714 657.966 316.592C650.112 311.47 644.137 304.385 640.039 295.336C635.941 286.287 633.551 275.787 632.868 263.836L658.478 256.921C658.99 264.262 660.1 271.348 661.807 278.177C663.686 285.006 666.673 290.641 670.771 295.08C674.869 299.348 680.588 301.482 687.93 301.482C695.442 301.482 701.076 299.433 704.832 295.336C708.759 291.067 710.722 285.006 710.722 277.153C710.722 267.762 708.588 260.25 704.32 254.616C700.052 248.811 694.674 243.006 688.186 237.201L653.356 206.469C646.527 200.494 641.49 194.006 638.246 187.006C635.002 179.835 633.38 171.042 633.38 160.628C633.38 145.432 637.734 133.652 646.442 125.286C655.149 116.92 667.015 112.737 682.039 112.737C690.234 112.737 697.405 113.847 703.552 116.066C709.869 118.115 715.076 121.359 719.174 125.798C723.442 130.237 726.771 135.871 729.161 142.701C731.722 149.359 733.43 157.213 734.283 166.262L709.698 172.92C709.186 166.091 708.161 159.859 706.625 154.225C705.088 148.42 702.356 143.81 698.43 140.396C694.674 136.81 689.21 135.018 682.039 135.018C674.869 135.018 669.234 136.981 665.137 140.908C661.21 144.664 659.246 150.298 659.246 157.811C659.246 164.128 660.271 169.335 662.32 173.433C664.539 177.53 668.039 181.713 672.82 185.981L707.905 216.713C715.759 223.543 722.674 231.738 728.649 241.299C734.625 250.689 737.613 261.872 737.613 274.848C737.613 285.092 735.479 293.97 731.21 301.482C726.942 308.824 721.052 314.458 713.539 318.385C706.198 322.311 697.661 324.275 687.93 324.275ZM761.598 321.97V114.53H790.025V321.97H761.598ZM873.013 324.531C860.037 324.531 849.623 321.799 841.769 316.336C834.086 310.702 828.452 302.592 824.866 292.006C821.452 281.421 819.744 268.701 819.744 253.848V184.445C819.744 169.25 821.281 156.359 824.354 145.774C827.598 135.018 833.232 126.823 841.257 121.188C849.452 115.554 860.806 112.737 875.318 112.737C888.294 112.737 898.708 114.957 906.562 119.396C914.586 123.664 920.391 130.323 923.977 139.371C927.562 148.25 929.355 159.518 929.355 173.176V180.859H902.208V174.457C902.208 165.408 901.611 158.067 900.416 152.432C899.221 146.628 896.745 142.359 892.989 139.628C889.403 136.725 883.684 135.274 875.83 135.274C867.294 135.274 861.062 137.237 857.135 141.164C853.379 145.091 850.989 150.469 849.964 157.298C849.11 163.957 848.684 171.555 848.684 180.091V256.921C848.684 266.823 849.367 275.104 850.732 281.762C852.269 288.421 855.086 293.372 859.184 296.616C863.281 299.86 869.086 301.482 876.598 301.482C884.111 301.482 889.916 299.689 894.013 296.104C898.111 292.519 900.928 287.226 902.464 280.226C904.001 273.226 904.769 264.518 904.769 254.104V239.762H878.391V219.274H930.891V321.97H912.708L909.891 298.153C907.16 305.836 902.891 312.153 897.086 317.104C891.281 322.055 883.257 324.531 873.013 324.531ZM960.639 321.97V114.53H980.358L1039.26 252.311V114.53H1063.33V321.97H1044.9L985.224 180.347V321.97H960.639Z" fill="#3A3A3A"/>
</svg>
